X: 320
T:Watchmaker, The
M:C|
L:1/8
R:reel
D:North Cregg: mi.da:za
Z:Devin McCabe
K:ADor
B|:c3A BGGB|cAAB cded|cAAc BGGB|cABG EAAB:|
!c2ec gcec|~G3B dGBG|Gcce gedg|eaag e/2f/2g ae|
!g2eg f2df|ecce dBBB|ABcd ~e3d|cABG EAAB||
